Papirus/48x48/apps/btrfs-assistant.svg

<svg width="48" height="48" version="1.1" xmlns="http://www.w3.org/2000/svg">
 <circle cx="24" cy="23.999846" r="14.999846" style="fill:#444444"/>
 <path d="m24 12.99946c6 0 12 5.000072 12 12 0 6.999929-6 12.000001-12 12.000001s-12-5.000072-12-12.000001c0-6.999928 6-12 12-12zm-16.969144 8.637722 1.1279115 0.987738c-0.1168588 0.779232-0.1878281 1.563184-0.1878281 2.374975 0 0.811732 0.071029 1.595684 0.1878281 2.374976l-3.318366 2.90597c-0.2075977 0.178316-0.3401687 0.437829-0.3401687 0.718353 0 0.184431 0.029875 0.370592 0.1209709 0.531635l4.007059 6.937328c0.2323976 0.393416 0.7570523 0.586374 1.1895878 0.437486l4.163658-1.406186c1.251388 0.99994 2.677573 1.813782 4.194958 2.406176l0.845251 4.281156c0.08565 0.448135 0.513455 0.806272 0.97047 0.812472h8.014218c0.457005-6e-3 0.884781-0.364337 0.97047-0.812472l0.845251-4.281156c1.517385-0.592354 2.94357-1.406286 4.194957-2.406176l4.163658 1.406186c0.432555 0.148888 0.95721-0.0441 1.189588-0.437486l4.007059-6.937328c0.08983-0.158799 0.122411-0.349768 0.122411-0.531635 0-0.2808-0.132029-0.53847-0.341549-0.718353l-3.316966-2.90597c0.116859-0.779232 0.187838-1.563184 0.187838-2.374976 0-0.811731-0.07103-1.595683-0.187838-2.374975l3.318366-2.906171c0.205578-0.176481 0.340149-0.449339 0.340149-0.719432 0-0.187081-0.02862-0.367225-0.121011-0.530555l-4.006959-6.937729c-0.231998-0.393396-0.756993-0.586294-1.188988-0.437395l-4.163658 1.406185c-1.251987-0.999989-2.677972-1.813881-4.194957-2.406175l-0.844991-4.2811563c-0.085999-0.4480954-0.513995-0.8062918-0.97099-0.8124917h-8.014218c-0.321161 0-0.864215 0.2295919-0.97266 0.8126917l-0.844991 4.2811563c-1.516985 0.592294-2.94297 1.406186-4.194958 2.406175l-4.163458-1.406185c-0.4325955-0.148899-0.9571902 0.0441-1.1895878 0.437395l-4.007159 6.937729c-0.091627 0.161981-0.1210145 0.344614-0.1210145 0.530355 0 0.271448 0.1334329 0.542019 0.3402123 0.719632l1.0850578 0.950211z" style="opacity:.2"/>
 <path d="m24 12.000051c6 0 12 5.000072 12 12 0 6.999929-6 12.000001-12 12.000001s-12-5.000072-12-12.000001c0-6.999928 6-12 12-12zm-16.969144 8.637722 1.1279115 0.987738c-0.1168588 0.779232-0.1878281 1.563184-0.1878281 2.374975 0 0.811732 0.071029 1.595684 0.1878281 2.374976l-3.318366 2.90597c-0.2075977 0.178316-0.3401687 0.437829-0.3401687 0.718353 0 0.184431 0.029875 0.370592 0.1209709 0.531635l4.007059 6.937328c0.2323976 0.393416 0.7570523 0.586374 1.1895878 0.437486l4.163658-1.406186c1.251388 0.99994 2.677573 1.813782 4.194958 2.406176l0.845251 4.281156c0.08565 0.448135 0.513455 0.806272 0.97047 0.812472h8.014218c0.457005-6e-3 0.884781-0.364337 0.97047-0.812472l0.845251-4.281156c1.517385-0.592354 2.94357-1.406286 4.194957-2.406176l4.163658 1.406186c0.432555 0.148888 0.95721-0.0441 1.189588-0.437486l4.007059-6.937328c0.08983-0.158799 0.122411-0.349768 0.122411-0.531635 0-0.2808-0.132029-0.53847-0.341549-0.718353l-3.316966-2.90597c0.116859-0.779232 0.187838-1.563184 0.187838-2.374976 0-0.811731-0.07103-1.595683-0.187838-2.374975l3.318366-2.906171c0.205578-0.176481 0.340149-0.449339 0.340149-0.719432 0-0.187081-0.02862-0.367225-0.121011-0.530555l-4.006959-6.937729c-0.231998-0.393396-0.756993-0.5862939-1.188988-0.437395l-4.163658 1.406185c-1.251987-0.999989-2.677972-1.8138812-4.194957-2.4061752l-0.844991-4.2811561c-0.086-0.4480954-0.513995-0.8062918-0.97099-0.8124917h-8.014218c-0.321161 0-0.864215 0.2295919-0.97266 0.8126917l-0.844991 4.2811561c-1.516985 0.592294-2.94297 1.4061862-4.194958 2.4061752l-4.163458-1.406185c-0.4325955-0.1488989-0.9571902 0.0441-1.1895878 0.437395l-4.007159 6.937729c-0.091627 0.161981-0.1210145 0.344614-0.1210145 0.530355 0 0.271448 0.1334329 0.542019 0.3402123 0.719632l1.0850578 0.950211z" style="fill:#e97e10"/>
 <path d="m20.00004 17.000051h-1.999979c-1.999979 0-1.999979 1.99998-1.999979 1.99998v2.999968c0 0.523432 0.499995 0.99999 0.499995 0.99999s-0.499995 0.600704-0.499995 0.99999v2.999968s-4.72e-4 1.99998 1.999979 1.99998h6.999929s0.99997 0 0.99999 0.99999l2e-5 1.000174s-0.0012 1.99998 1.99998 1.99998h1.999978c1.99998 0 1.99998-1.99998 1.99998-1.99998v-2.99997c0-0.54148-0.499994-0.99999-0.499994-0.99999s0.499994-0.48613 0.499994-0.99999v-2.999968s0-1.99998-1.99998-1.99998h-1.999978c-2.000162 0-1.99998 1.99998-1.99998 1.99998l-2e-5 2.999784s0 0.99999-0.99999 0.99999h-1.99998c-0.99999 0-0.99999-0.99999-0.99999-0.99999v-1.999978c0-0.523612-0.499994-0.99999-0.499994-0.99999s0.499994-0.468746 0.499994-0.99999v-2.999968s0-1.99998-1.99998-1.99998zm-0.999989 1.99998c0.999989 0 0.999989 0.999989 0.999989 0.999989v0.999991s0 0.999988-0.999989 0.999988c-0.99999 0-0.99999-0.999988-0.99999-0.999988v-0.999991s0-0.999989 0.99999-0.999989zm9.999917 4.000142c0.99999 0 0.99999 0.99999 0.99999 0.99999v0.999988s0 0.99999-0.99999 0.99999c-0.999988 0-0.999988-0.99999-0.999988-0.99999v-0.999988s0-0.99999 0.999988-0.99999zm-8.999928 1.999796v0.999988s0 0.99999-0.999989 0.99999c-0.99999 0-0.99999-0.99999-0.99999-0.99999v-0.999988s0-0.99999 0.99999-0.99999c0.999989 0 0.999989 0.99999 0.999989 0.99999zm9.999918 4.000142v0.99999s0 0.99999-0.99999 0.99999c-0.999988 0-0.999988-0.99999-0.999988-0.99999v-0.99999s0-0.99999 0.999988-0.99999c0.99999 0 0.99999 0.99999 0.99999 0.99999z" style="opacity:.2"/>
 <path d="m20.00004 15.999928h-1.999979c-1.999979 0-1.999979 1.99998-1.999979 1.99998v2.999969c0 0.523432 0.499995 0.99999 0.499995 0.99999s-0.499995 0.600704-0.499995 0.99999v2.999968s-4.72e-4 1.99998 1.999979 1.99998h6.999929s0.99997 0 0.99999 0.99999l2e-5 1.000174s-0.0012 1.99998 1.99998 1.99998h1.999978c1.99998 0 1.99998-1.99998 1.99998-1.99998v-2.99997c0-0.54148-0.499994-0.99999-0.499994-0.99999s0.499994-0.48613 0.499994-0.99999v-2.999968s0-1.99998-1.99998-1.99998h-1.999978c-2.000162 0-1.99998 1.99998-1.99998 1.99998l-2e-5 2.999784s0 0.99999-0.99999 0.99999h-1.99998c-0.99999 0-0.99999-0.99999-0.99999-0.99999v-1.999978c0-0.523612-0.499994-0.99999-0.499994-0.99999s0.499994-0.468746 0.499994-0.99999v-2.999969s0-1.99998-1.99998-1.99998zm-0.999989 1.99998c0.999989 0 0.999989 0.99999 0.999989 0.99999v0.999989s0 0.99999-0.999989 0.99999c-0.99999 0-0.99999-0.99999-0.99999-0.99999v-0.999989s0-0.99999 0.99999-0.99999zm9.999917 4.000143c0.99999 0 0.99999 0.99999 0.99999 0.99999v0.999988s0 0.99999-0.99999 0.99999c-0.999988 0-0.999988-0.99999-0.999988-0.99999v-0.999988s0-0.99999 0.999988-0.99999zm-8.999928 1.999796v0.999988s0 0.99999-0.999989 0.99999c-0.99999 0-0.99999-0.99999-0.99999-0.99999v-0.999988s0-0.99999 0.99999-0.99999c0.999989 0 0.999989 0.99999 0.999989 0.99999zm9.999918 4.000142v0.99999s0 0.99999-0.99999 0.99999c-0.999988 0-0.999988-0.99999-0.999988-0.99999v-0.99999s0-0.99999 0.999988-0.99999c0.99999 0 0.99999 0.99999 0.99999 0.99999z" style="fill:#e97e10"/>
 <path d="m19.021535 4.8125429-0.845694 4.2812061c-1.516985 0.592294-2.943281 1.406236-4.195269 2.406225l-4.1620674-1.406235c-0.4325956-0.1488989-0.9570433 0.0442-1.189441 0.437495l-4.0077714 6.937429c-0.091597 0.161929-0.1210925 0.349766-0.1210925 0.531245 0 0.158467 0.053059 0.318724 0.1289049 0.457026l3.999959-6.92571c0.2323977-0.393296 0.7568454-0.586394 1.189441-0.437495l4.1620674 1.406235c1.251988-0.99999 2.678284-1.813931 4.195269-2.406225l0.845694-4.2812064c0.078-0.4193957 0.451948-0.7662921 0.876945-0.8124916h2e-3c0.03126-1e-3 0.06249-1e-3 0.09375 0h8.013589c0.456996 0.0062 0.884695 0.3643962 0.970694 0.8124916l0.845694 4.2812064c1.516985 0.592294 2.943282 1.406235 4.195269 2.406225l4.164021-1.406235c0.431995-0.148899 0.95549 0.0441 1.187488 0.437495l3.999959 6.92571c0.07711-0.14061 0.128857-0.295909 0.128857-0.457026 0-0.179025-0.03076-0.371626-0.121057-0.531245l-4.007772-6.937429c-0.231998-0.393396-0.755493-0.5863939-1.187488-0.437495l-4.164056 1.406235c-1.251987-0.999989-2.678284-1.813931-4.195269-2.406225l-0.845694-4.2812061c-0.086-0.4480954-0.513698-0.8062918-0.970694-0.8124917h-8.013589c-0.342618 0-0.872075 0.2717248-0.972647 0.8124917zm-10.968637 17.720521c-0.047675 0.482642-0.082031 0.96851-0.082031 1.466782 0 0.168951 0.015558 0.333243 0.021484 0.499995 0.022559-0.634161 0.073517-1.258199 0.1660139-1.874981zm31.894205 0-0.105468 0.0918c0.09246 0.61683 0.14344 1.240848 0.166013 1.874981 0.0058-0.164875 0.02113-0.327319 0.02147-0.49427 4e-6 -0.0019 6e-6 -0.0038 6e-6 -0.0057 0-0.498235-0.03435-0.984131-0.08203-1.466782zm-31.894205 3.933554-3.2128577 2.814424c-0.2105677 0.180867-0.3398067 0.438397-0.3398067 0.718743 0 0.180502 0.031889 0.373606 0.1210589 0.531245l0.00781 0.01367c0.054328-0.09907 0.1246131-0.189524 0.2109354-0.26367l3.3183277-2.906218c-0.0451083-0.300967-0.0754678-0.604505-0.1054676-0.908194zm31.894205 0c-0.03 0.303684-0.06034 0.60725-0.105468 0.908194l3.316372 2.90622c0.08631 0.0741 0.156614 0.164606 0.210936 0.263669l0.0078-0.01367c0.09041-0.159817 0.123057-0.34821 0.123057-0.531247 0-0.27373-0.133173-0.53962-0.341805-0.718741z" style="fill:#ffffff;opacity:.2"/>
 <path d="m12 24.000051v0.99999c0 6.999928 5.000072 12.00042 12 12.00021s12-5.000282 12-12.00021v-0.99999c0 6.999929-6 12.000001-12 12.000001s-12-5.000072-12-12.000001z" style="fill:#fdfdfd;opacity:.2"/>
</svg>

<svg xmlns="http://www.w3.org/2000/svg" width="48" height="48" version="1.1">
 <circle style="fill:#444444" cx="24" cy="24" r="15"/>
 <path style="opacity:0.2" d="m24 12.999c6 0 12 5 12 12 0 7-6 12-12 12s-12-5-12-12c0-7 6-12 12-12zm-16.969 8.638 1.128 0.988c-0.117 0.779-0.188 1.563-0.188 2.375 0 0.812 0.071 1.596 0.188 2.375l-3.318 2.906c-0.208 0.178-0.34 0.438-0.34 0.718 0 0.184 0.03 0.371 0.121 0.532l4.007 6.937c0.232 0.393 0.757 0.586 1.19 0.437l4.164-1.406c1.251 1 2.678 1.814 4.195 2.406l0.845 4.281c0.086 0.448 0.513 0.806 0.97 0.812h8.014c0.457-0.006 0.885-0.364 0.97-0.812l0.845-4.281c1.517-0.592 2.944-1.406 4.195-2.406l4.164 1.406c0.433 0.149 0.957-0.044 1.19-0.437l4.007-6.937c0.09-0.159 0.122-0.35 0.122-0.532 0-0.281-0.132-0.538-0.342-0.718l-3.317-2.906c0.117-0.779 0.188-1.563 0.188-2.375 0-0.812-0.071-1.596-0.188-2.375l3.318-2.906c0.206-0.176 0.34-0.449 0.34-0.719 0-0.187-0.029-0.367-0.121-0.531l-4.007-6.938c-0.232-0.393-0.757-0.586-1.189-0.437l-4.164 1.406c-1.252-1-2.678-1.814-4.195-2.406l-0.845-4.281c-0.086-0.448-0.514-0.806-0.971-0.812h-8.014c-0.321 0-0.864 0.23-0.973 0.813l-0.845 4.281c-1.517 0.592-2.943 1.406-4.195 2.406l-4.163-1.406c-0.433-0.149-0.957 0.044-1.19 0.437l-4.007 6.938c-0.092 0.162-0.121 0.345-0.121 0.53 0 0.271 0.133 0.542 0.34 0.72l1.085 0.95z"/>
 <path style="fill:#e97e10" d="m24 12c6 0 12 5 12 12 0 7-6 12-12 12s-12-5-12-12c0-7 6-12 12-12zm-16.969 8.638 1.128 0.988c-0.117 0.779-0.188 1.563-0.188 2.375 0 0.812 0.071 1.596 0.188 2.375l-3.318 2.906c-0.208 0.178-0.34 0.438-0.34 0.718 0 0.184 0.03 0.371 0.121 0.532l4.007 6.937c0.232 0.393 0.757 0.586 1.19 0.437l4.164-1.406c1.251 1 2.678 1.814 4.195 2.406l0.845 4.281c0.086 0.448 0.513 0.806 0.97 0.812h8.014c0.457-0.006 0.885-0.364 0.97-0.812l0.845-4.281c1.517-0.592 2.944-1.406 4.195-2.406l4.164 1.406c0.433 0.149 0.957-0.044 1.19-0.437l4.007-6.937c0.09-0.159 0.122-0.35 0.122-0.532 0-0.281-0.132-0.538-0.342-0.718l-3.317-2.906c0.117-0.779 0.188-1.563 0.188-2.375 0-0.812-0.071-1.596-0.188-2.375l3.318-2.906c0.206-0.176 0.34-0.449 0.34-0.719 0-0.187-0.029-0.367-0.121-0.531l-4.007-6.938c-0.232-0.393-0.757-0.586-1.189-0.437l-4.164 1.406c-1.252-1-2.678-1.814-4.195-2.406l-0.845-4.281c-0.086-0.448-0.514-0.806-0.971-0.812h-8.014c-0.321 0-0.864 0.23-0.973 0.813l-0.845 4.281c-1.517 0.592-2.943 1.406-4.195 2.406l-4.163-1.406c-0.433-0.149-0.957 0.044-1.19 0.437l-4.007 6.938c-0.092 0.162-0.121 0.345-0.121 0.53 0 0.271 0.133 0.542 0.34 0.72l1.085 0.95z"/>
 <path style="opacity:0.2" d="m20 17h-2c-2 0-2 2-2 2v3c0 0.523 0.5 1 0.5 1s-0.5 0.601-0.5 1v3s-0 2 2 2h7s1 0 1 1l0 1s-0.001 2 2 2h2c2 0 2-2 2-2v-3c0-0.541-0.5-1-0.5-1s0.5-0.486 0.5-1v-3s0-2-2-2h-2c-2 0-2 2-2 2l-0 3s0 1-1 1h-2c-1 0-1-1-1-1v-2c0-0.524-0.5-1-0.5-1s0.5-0.469 0.5-1v-3s0-2-2-2zm-1 2c1 0 1 1 1 1v1s0 1-1 1c-1 0-1-1-1-1v-1s0-1 1-1zm10 4c1 0 1 1 1 1v1s0 1-1 1c-1 0-1-1-1-1v-1s0-1 1-1zm-9 2v1s0 1-1 1c-1 0-1-1-1-1v-1s0-1 1-1c1 0 1 1 1 1zm10 4v1s0 1-1 1c-1 0-1-1-1-1v-1s0-1 1-1c1 0 1 1 1 1z"/>
 <path style="fill:#e97e10" d="m20 16h-2c-2 0-2 2-2 2v3c0 0.523 0.5 1 0.5 1s-0.5 0.601-0.5 1v3s-0 2 2 2h7s1 0 1 1l0 1s-0.001 2 2 2h2c2 0 2-2 2-2v-3c0-0.541-0.5-1-0.5-1s0.5-0.486 0.5-1v-3s0-2-2-2h-2c-2 0-2 2-2 2l-0 3s0 1-1 1h-2c-1 0-1-1-1-1v-2c0-0.524-0.5-1-0.5-1s0.5-0.469 0.5-1v-3s0-2-2-2zm-1 2c1 0 1 1 1 1v1s0 1-1 1c-1 0-1-1-1-1v-1s0-1 1-1zm10 4c1 0 1 1 1 1v1s0 1-1 1c-1 0-1-1-1-1v-1s0-1 1-1zm-9 2v1s0 1-1 1c-1 0-1-1-1-1v-1s0-1 1-1c1 0 1 1 1 1zm10 4v1s0 1-1 1c-1 0-1-1-1-1v-1s0-1 1-1c1 0 1 1 1 1z"/>
 <path style="fill:#ffffff;opacity:0.2" d="M 12,24 V 25 C 12,32 17,37 24,37 31,37 36,32 36,25 V 24 C 36,31 30,36 24,36 18,36 12,31 12,24 Z M 19.022,4.813 18.176,9.094 C 16.659,9.686 15.233,10.5 13.981,11.5 L 9.819,10.094 C 9.386,9.945 8.862,10.138 8.63,10.531 L 4.622,17.468 C 4.53,17.63 4.501,17.818 4.501,17.999 4.501,18.157 4.554,18.318 4.63,18.456 L 8.63,11.53 C 8.862,11.137 9.387,10.944 9.819,11.093 L 13.981,12.499 C 15.233,11.499 16.659,10.685 18.176,10.093 L 19.022,5.812 C 19.1,5.393 19.474,5.046 19.899,5 H 19.901 C 19.932,4.999 19.963,4.999 19.995,5 H 28.009 C 28.466,5.006 28.894,5.364 28.98,5.812 L 29.826,10.093 C 31.343,10.685 32.769,11.499 34.021,12.499 L 38.185,11.093 C 38.617,10.944 39.14,11.137 39.372,11.53 L 43.372,18.456 C 43.449,18.315 43.501,18.16 43.501,17.999 43.501,17.82 43.47,17.627 43.38,17.468 L 39.372,10.531 C 39.14,10.138 38.617,9.945 38.185,10.094 L 34.021,11.5 C 32.769,10.5 31.343,9.686 29.826,9.094 L 28.98,4.813 C 28.894,4.365 28.466,4.007 28.009,4.001 H 19.995 C 19.652,4.001 19.123,4.273 19.022,4.813 Z M 8.053,22.534 C 8.005,23.017 7.971,23.503 7.971,24.001 7.971,24.17 7.987,24.334 7.992,24.501 8.015,23.867 8.066,23.243 8.158,22.626 Z M 39.947,22.534 39.842,22.626 C 39.934,23.243 39.985,23.867 40.008,24.501 40.014,24.336 40.029,24.174 40.029,24.007 40.029,24.005 40.029,24.003 40.029,24.001 40.029,23.503 39.995,23.017 39.947,22.534 Z M 8.053,26.468 4.84,29.282 C 4.629,29.463 4.5,29.72 4.5,30.001 4.5,30.182 4.532,30.375 4.621,30.532 L 4.629,30.546 C 4.683,30.447 4.754,30.356 4.84,30.282 L 8.158,27.376 C 8.113,27.075 8.083,26.771 8.053,26.468 Z M 39.947,26.468 C 39.917,26.772 39.887,27.075 39.842,27.376 L 43.158,30.282 C 43.244,30.356 43.315,30.447 43.369,30.546 L 43.377,30.532 C 43.467,30.372 43.5,30.184 43.5,30.001 43.5,29.727 43.367,29.461 43.158,29.282 Z"/>
</svg>
